svgs/readwise.svg

<svg width="192" height="192" viewBox="0 0 192 192" fill="none" xmlns="http://www.w3.org/2000/svg">
<path d="M151.151 148.195C156.561 157.08 160.973 160.034 169.997 161.093V169.978H125.475L83.7715 101.281H73.3516V146.324C73.3516 158.385 76.3677 160.059 89.2054 161.117V170.003H22V161.117C34.8376 160.059 37.8543 158.36 37.8543 146.324V45.6783C37.8543 33.4209 35.2369 31.944 22 30.8856V22H91.1747C132.879 22 154.666 30.6642 154.666 61.1114C154.666 84.1497 143.324 95.1522 120.465 98.9429L151.151 148.195Z" stroke="black" stroke-width="12" stroke-linejoin="round"/>
<path d="M118.5 75.5C118.5 75.5 92 71 73.5 77.5L113 44C113 44 113 63 118.5 75.5Z" stroke="black" stroke-width="12" stroke-linejoin="round"/>
</svg>

<svg xmlns="http://www.w3.org/2000/svg" width="192" height="192" fill="none" stroke="#000" stroke-linejoin="round" stroke-width="12" viewBox="0 0 192 192"><path d="M151.151 148.195c5.41 8.885 9.822 11.839 18.846 12.898v8.885h-44.522l-41.703-68.697h-10.42v45.043c0 12.061 3.016 13.735 15.853 14.793v8.886H22v-8.886c12.838-1.058 15.854-2.757 15.854-14.793V45.678c0-12.257-2.617-13.734-15.854-14.792V22h69.175c41.704 0 63.491 8.664 63.491 39.111 0 23.039-11.342 34.041-34.201 37.832l30.686 49.252Z"/><path d="M118.5 75.5s-26.5-4.5-45 2L113 44s0 19 5.5 31.5Z"/></svg>
